public/imgs/Enterprises/InfinixSoft/logo-soft-black.svg

<svg width="203" height="43" viewBox="0 0 203 43" fill="none" xmlns="http://www.w3.org/2000/svg">
<g clip-path="url(#clip0_444_16492)">
<path d="M34.0964 9.56348C30.4424 9.56348 27.1469 11.1411 24.8407 13.6567L28.9685 19.9455C29.8571 17.9803 31.821 16.6113 34.0964 16.6113C37.2053 16.6113 39.7343 19.1648 39.7343 22.3038C39.7343 25.4429 37.2053 27.9963 34.0964 27.9963C31.9942 27.9963 30.2558 26.7697 29.19 25.1027C23.7601 16.6113 24.5789 17.8054 22.8217 15.0351C22.3949 14.3614 21.8821 13.6634 21.7532 13.5265C19.4537 11.0869 16.2092 9.56348 12.6183 9.56348C5.6608 9.56348 0 15.279 0 22.3038C0 29.3287 5.6608 35.0442 12.6183 35.0442C16.2911 35.0442 19.6014 33.4517 21.9089 30.9144L17.8093 24.5253C16.9502 26.5637 14.9474 27.9963 12.6183 27.9963C9.50939 27.9963 6.98036 25.4429 6.98036 22.3038C6.98036 19.1648 9.50939 16.6113 12.6183 16.6113C14.6923 16.6113 16.4508 17.7837 17.4871 19.4386C21.7465 26.2344 22.1425 26.7616 23.9856 29.6512C24.4608 30.3953 25.2286 31.3644 25.4796 31.6016C27.7362 33.7349 30.7673 35.0442 34.0964 35.0442C41.0539 35.0442 46.7147 29.3287 46.7147 22.3038C46.7147 15.279 41.0539 9.56348 34.0964 9.56348Z" fill="#DB3957"/>
</g>
<path d="M59.1271 35.4619V10.603H63.6651V35.4619H59.1271ZM68.0795 35.4619V17.3099H72.1837V20.8803L71.8501 20.2463C72.2727 19.1563 72.9623 18.3332 73.9188 17.7771C74.8976 17.1987 76.0321 16.9095 77.3223 16.9095C78.657 16.9095 79.836 17.1987 80.8593 17.7771C81.9048 18.3554 82.7168 19.1674 83.2951 20.2129C83.8735 21.2362 84.1627 22.4263 84.1627 23.7832V35.4619H79.7915V24.8176C79.7915 24.0168 79.6358 23.3272 79.3244 22.7488C79.013 22.1705 78.5792 21.7256 78.0231 21.4141C77.4892 21.0805 76.8552 20.9136 76.1211 20.9136C75.4093 20.9136 74.7753 21.0805 74.2192 21.4141C73.663 21.7256 73.2292 22.1705 72.9178 22.7488C72.6064 23.3272 72.4507 24.0168 72.4507 24.8176V35.4619H68.0795ZM89.9611 35.4619V21.2139H86.7578V17.3099H89.9611V16.7093C89.9611 15.3301 90.2392 14.1622 90.7953 13.2057C91.3737 12.2269 92.1745 11.4817 93.1978 10.9701C94.2211 10.4584 95.4334 10.2026 96.8348 10.2026C97.1018 10.2026 97.391 10.2249 97.7024 10.2694C98.0361 10.2916 98.3141 10.325 98.5366 10.3695V14.14C98.3141 14.0955 98.1028 14.0733 97.9026 14.0733C97.7247 14.051 97.5578 14.0399 97.4021 14.0399C96.4233 14.0399 95.667 14.2623 95.1331 14.7072C94.5992 15.1299 94.3323 15.7973 94.3323 16.7093V17.3099H102.274V21.2139H94.3323V35.4619H89.9611ZM100.639 35.4619V17.3099H105.043V35.4619H100.639ZM108.681 35.4619V17.3099H112.785V20.8803L112.452 20.2463C112.874 19.1563 113.564 18.3332 114.52 17.7771C115.499 17.1987 116.634 16.9095 117.924 16.9095C119.259 16.9095 120.438 17.1987 121.461 17.7771C122.506 18.3554 123.318 19.1674 123.897 20.2129C124.475 21.2362 124.764 22.4263 124.764 23.7832V35.4619H120.393V24.8176C120.393 24.0168 120.237 23.3272 119.926 22.7488C119.615 22.1705 119.181 21.7256 118.625 21.4141C118.091 21.0805 117.457 20.9136 116.723 20.9136C116.011 20.9136 115.377 21.0805 114.821 21.4141C114.265 21.7256 113.831 22.1705 113.519 22.7488C113.208 23.3272 113.052 24.0168 113.052 24.8176V35.4619H108.681ZM128.461 35.4619V17.3099H132.832V35.4619H128.461ZM128.461 15.2745V10.603H132.832V15.2745H128.461ZM135.233 35.4619L141.572 26.3526L135.199 17.3099H140.338L145.31 24.6508H143.007L147.979 17.3099H153.084L146.744 26.3526L153.051 35.4619H147.946L143.041 28.1544H145.276L140.371 35.4619H135.233Z" fill="black"/>
<path d="M174.895 19.2813C174.32 19.2813 173.794 19.1762 173.317 18.9659C172.84 18.7475 172.435 18.4522 172.104 18.0801C171.772 17.708 171.534 17.2914 171.388 16.8303L172.419 16.4057C172.638 16.9881 172.961 17.437 173.39 17.7525C173.827 18.0599 174.336 18.2136 174.919 18.2136C175.275 18.2136 175.586 18.157 175.853 18.0437C176.12 17.9305 176.326 17.7727 176.472 17.5705C176.626 17.3602 176.702 17.1175 176.702 16.8425C176.702 16.4623 176.593 16.163 176.375 15.9446C176.165 15.7181 175.853 15.5482 175.441 15.435L173.778 14.9254C173.123 14.7231 172.622 14.4036 172.274 13.9668C171.926 13.53 171.752 13.0285 171.752 12.4622C171.752 11.9688 171.869 11.536 172.104 11.1639C172.346 10.7837 172.678 10.4885 173.099 10.2782C173.528 10.0597 174.013 9.95054 174.555 9.95054C175.097 9.95054 175.586 10.0476 176.023 10.2418C176.468 10.4359 176.844 10.6988 177.151 11.0304C177.459 11.354 177.685 11.7261 177.831 12.1467L176.812 12.5714C176.618 12.0618 176.326 11.6776 175.938 11.4187C175.55 11.1518 175.093 11.0183 174.567 11.0183C174.243 11.0183 173.956 11.0749 173.705 11.1882C173.463 11.2933 173.273 11.4511 173.135 11.6614C173.006 11.8636 172.941 12.1063 172.941 12.3894C172.941 12.7211 173.046 13.0163 173.257 13.2752C173.467 13.534 173.786 13.7322 174.215 13.8697L175.732 14.3187C176.444 14.5371 176.982 14.8485 177.346 15.253C177.71 15.6574 177.892 16.1589 177.892 16.7575C177.892 17.251 177.762 17.6878 177.503 18.068C177.253 18.4482 176.901 18.7475 176.448 18.9659C176.003 19.1762 175.485 19.2813 174.895 19.2813ZM183.952 19.2813C183.313 19.2813 182.715 19.1681 182.156 18.9416C181.598 18.707 181.109 18.3794 180.688 17.9588C180.276 17.5381 179.952 17.0447 179.718 16.4785C179.483 15.9041 179.366 15.2813 179.366 14.6099C179.366 13.9304 179.483 13.3075 179.718 12.7413C179.952 12.1751 180.276 11.6816 180.688 11.261C181.109 10.8403 181.594 10.5168 182.144 10.2903C182.702 10.0638 183.305 9.95054 183.952 9.95054C184.599 9.95054 185.198 10.0678 185.748 10.3024C186.306 10.5289 186.791 10.8525 187.204 11.2731C187.625 11.6857 187.952 12.1751 188.187 12.7413C188.43 13.3075 188.551 13.9304 188.551 14.6099C188.551 15.2813 188.43 15.9041 188.187 16.4785C187.952 17.0447 187.625 17.5381 187.204 17.9588C186.791 18.3794 186.306 18.707 185.748 18.9416C185.198 19.1681 184.599 19.2813 183.952 19.2813ZM183.952 18.1772C184.454 18.1772 184.911 18.0882 185.323 17.9102C185.736 17.7242 186.092 17.4694 186.391 17.1458C186.698 16.8142 186.933 16.434 187.095 16.0053C187.265 15.5684 187.35 15.1033 187.35 14.6099C187.35 14.1164 187.265 13.6554 187.095 13.2266C186.933 12.7979 186.698 12.4218 186.391 12.0982C186.092 11.7666 185.736 11.5117 185.323 11.3338C184.911 11.1477 184.454 11.0547 183.952 11.0547C183.459 11.0547 183.006 11.1477 182.593 11.3338C182.181 11.5117 181.821 11.7666 181.513 12.0982C181.214 12.4218 180.979 12.7979 180.81 13.2266C180.64 13.6554 180.555 14.1164 180.555 14.6099C180.555 15.1033 180.64 15.5684 180.81 16.0053C180.979 16.434 181.214 16.8142 181.513 17.1458C181.821 17.4694 182.181 17.7242 182.593 17.9102C183.006 18.0882 183.459 18.1772 183.952 18.1772ZM190.285 19.1357V10.0961H196.012V11.1882H191.474V14.1124H195.588V15.2044H191.474V19.1357H190.285ZM198.937 19.1357V11.1882H196.486V10.0961H202.552V11.1882H200.138V19.1357H198.937Z" fill="black"/>
<path d="M162.592 9.56348L162.592 35.0442" stroke="black" stroke-width="0.485347"/>
<defs>
<clipPath id="clip0_444_16492">
<rect width="46.7147" height="25.4807" fill="white" transform="translate(0 9.56348)"/>
</clipPath>
</defs>
</svg>

<svg xmlns="http://www.w3.org/2000/svg" width="203" height="43" fill="none"><g clip-path="url(#a)"><path fill="#DB3957" d="M34.096 9.563c-3.654 0-6.95 1.578-9.255 4.094l4.127 6.288c.89-1.965 2.853-3.334 5.128-3.334 3.11 0 5.638 2.554 5.638 5.693s-2.529 5.692-5.638 5.692c-2.102 0-3.84-1.226-4.906-2.893-5.43-8.492-4.611-7.298-6.368-10.068-.427-.674-.94-1.372-1.069-1.508-2.3-2.44-5.544-3.964-9.135-3.964C5.661 9.563 0 15.28 0 22.303c0 7.026 5.66 12.741 12.618 12.741 3.673 0 6.983-1.592 9.29-4.13l-4.099-6.389c-.859 2.039-2.862 3.471-5.19 3.471-3.11 0-5.639-2.553-5.639-5.692 0-3.14 2.53-5.693 5.638-5.693 2.074 0 3.833 1.173 4.87 2.828 4.259 6.795 4.654 7.323 6.498 10.212.475.744 1.243 1.713 1.494 1.95a12.507 12.507 0 0 0 8.616 3.443c6.958 0 12.619-5.715 12.619-12.74s-5.661-12.74-12.619-12.74Z"/></g><path fill="#000" d="M59.127 35.462V10.603h4.538v24.859h-4.538Zm8.952 0V17.31h4.105v3.57l-.334-.634c.423-1.09 1.112-1.913 2.069-2.469.979-.578 2.113-.867 3.403-.867 1.335 0 2.514.289 3.537.867a6.11 6.11 0 0 1 2.436 2.436c.579 1.023.868 2.213.868 3.57v11.679h-4.371V24.818c0-.801-.156-1.49-.468-2.07a3.272 3.272 0 0 0-1.3-1.334c-.535-.334-1.169-.5-1.903-.5-.712 0-1.346.166-1.902.5-.556.312-.99.756-1.301 1.335-.312.578-.467 1.268-.467 2.069v10.644H68.08Zm21.882 0V21.214h-3.203V17.31h3.203v-.6c0-1.38.278-2.548.834-3.504a5.686 5.686 0 0 1 2.403-2.236c1.023-.512 2.235-.767 3.637-.767.267 0 .556.022.867.066.334.023.612.056.835.1v3.771a3.236 3.236 0 0 0-.634-.067 4.037 4.037 0 0 0-.5-.033c-.98 0-1.736.222-2.27.667-.534.423-.8 1.09-.8 2.002v.6h7.941v3.905h-7.942v14.248h-4.37Zm10.678 0V17.31h4.404v18.152h-4.404Zm8.042 0V17.31h4.104v3.57l-.333-.634c.422-1.09 1.112-1.913 2.068-2.469.979-.578 2.114-.867 3.404-.867 1.335 0 2.514.289 3.537.867a6.118 6.118 0 0 1 2.436 2.436c.578 1.023.867 2.213.867 3.57v11.679h-4.371V24.818c0-.801-.156-1.49-.467-2.07a3.27 3.27 0 0 0-1.301-1.334c-.534-.334-1.168-.5-1.902-.5-.712 0-1.346.166-1.902.5-.556.312-.99.756-1.302 1.335-.311.578-.467 1.268-.467 2.069v10.644h-4.371Zm19.78 0V17.31h4.371v18.152h-4.371Zm0-20.188v-4.671h4.371v4.671h-4.371Zm6.772 20.188 6.339-9.11-6.373-9.042h5.139l4.972 7.34h-2.303l4.972-7.34h5.105l-6.34 9.043 6.307 9.109h-5.105l-4.905-7.308h2.235l-4.905 7.308h-5.138ZM174.895 19.281a3.869 3.869 0 0 1-1.578-.315 3.616 3.616 0 0 1-1.213-.886 3.401 3.401 0 0 1-.716-1.25l1.031-.424c.219.582.542 1.031.971 1.347.437.307.946.46 1.529.46.356 0 .667-.056.934-.17.267-.113.473-.27.619-.473.154-.21.23-.453.23-.727 0-.38-.109-.68-.327-.898-.21-.227-.522-.397-.934-.51l-1.663-.51c-.655-.202-1.156-.521-1.504-.958a2.347 2.347 0 0 1-.522-1.505c0-.493.117-.926.352-1.298.242-.38.574-.675.995-.886a3.161 3.161 0 0 1 1.456-.327c.542 0 1.031.097 1.468.29.445.195.821.458 1.128.79.308.323.534.695.68 1.116l-1.019.424c-.194-.51-.486-.893-.874-1.152-.388-.267-.845-.4-1.371-.4-.324 0-.611.056-.862.17a1.269 1.269 0 0 0-.57.472 1.325 1.325 0 0 0-.194.728c0 .332.105.627.316.886.21.259.529.457.958.595l1.517.449c.712.218 1.25.53 1.614.934.364.404.546.906.546 1.505 0 .493-.13.93-.389 1.31-.25.38-.602.68-1.055.898-.445.21-.963.315-1.553.315Zm9.057 0a4.734 4.734 0 0 1-1.796-.34 4.551 4.551 0 0 1-1.468-.982 4.609 4.609 0 0 1-.97-1.48 4.887 4.887 0 0 1-.352-1.87c0-.679.117-1.302.352-1.868.234-.566.558-1.06.97-1.48.421-.42.906-.744 1.456-.97a4.762 4.762 0 0 1 1.808-.34 4.53 4.53 0 0 1 1.796.351c.558.227 1.043.55 1.456.971.421.413.748.902.983 1.468.243.566.364 1.19.364 1.869 0 .671-.121 1.294-.364 1.869a4.514 4.514 0 0 1-.983 1.48c-.413.42-.898.748-1.456.983-.55.226-1.149.34-1.796.34Zm0-1.104c.502 0 .959-.089 1.371-.267a3.26 3.26 0 0 0 1.068-.764c.307-.332.542-.712.704-1.14.17-.438.255-.903.255-1.396 0-.494-.085-.955-.255-1.383a3.334 3.334 0 0 0-.704-1.129 3.04 3.04 0 0 0-1.068-.764 3.293 3.293 0 0 0-1.371-.28 3.27 3.27 0 0 0-1.359.28 3.18 3.18 0 0 0-1.08.764c-.299.324-.534.7-.703 1.129-.17.428-.255.89-.255 1.383s.085.958.255 1.395c.169.429.404.81.703 1.14.308.324.668.58 1.08.765.413.178.866.267 1.359.267Zm6.333.959v-9.04h5.727v1.092h-4.538v2.924h4.114v1.092h-4.114v3.932h-1.189Zm8.652 0v-7.948h-2.451v-1.092h6.066v1.092h-2.414v7.948h-1.201Z"/><path stroke="#000" stroke-width=".485" d="M162.592 9.563v25.481"/><defs><clipPath id="a"><path fill="#fff" d="M0 9.563h46.715v25.481H0z"/></clipPath></defs></svg>
